client/resources/iconsets/breeze/src/svg/16x16/icon_busystatus_busy.svg

<svg xmlns="http://www.w3.org/2000/svg" width="16" height="16" viewBox="0 0 16 16">
 <path style="fill:#19b5f1" 
       d="M 2 1 C 1.446 1 1 1.446 1 2 L 1 14 C 1 14.554 1.446 15 2 15 L 14 15 C 14.554 15 15 14.554 15 14 L 15 2 C 15 1.446 14.554 1 14 1 L 2 1 z M 2 2 L 14 2 L 14 14 L 2 14 L 2 2 z "
       />
 <path style="fill:#19b5f1" 
       d="M 2 2 L 2 14 L 14 14 L 14 2 L 2 2 z "
       />
</svg>

<svg xmlns="http://www.w3.org/2000/svg" width="16" height="16" fill="#19b5f1"><path d="M2 1a1 1 0 0 0-1 1v12a1 1 0 0 0 1 1h12a1 1 0 0 0 1-1V2a1 1 0 0 0-1-1H2zm0 1h12v12H2V2z"/><path d="M2 2v12h12V2H2z"/></svg>
